themes/vice/icons/48x48/notification-network-ethernet-disconnected.svg

<svg xmlns="http://www.w3.org/2000/svg" width="48" height="48" version="1">
    <path style="fill:#e4e4e4" d="M7 7s-3 0-3 3v24s0 3 3 3h5l4 4h16l4-4h5s3 0 3-3V10c0-3-3-3-3-3z"/>
    <path style="opacity:.4;fill:#fff" d="M10 14h28v18h-4.484l-4 4H18.485l-4-4H10z"/>
    <path style="fill:#5d5d5d" d="M10 13h28v18h-4.484l-4 4H18.485l-4-4H10z"/>
    <path style="opacity:.1;fill:#fff" d="M7 7s-3 0-3 3v1c0-3 3-3 3-3h34s3 0 3 3v-1c0-3-3-3-3-3z"/>
    <path style="opacity:.2" d="M4 34v1s0 3 3 3h5l4 4h16l4-4h5s3 0 3-3v-1c0 3-3 3-3 3h-5l-4 4H16l-4-4H7c-3 0-3-3-3-3z"/>
    <circle style="fill:#db3c30" cx="37" cy="35" r="10"/>
    <path style="opacity:.2" d="M46.979 35.414A10 10 0 0 1 37 45a10 10 0 0 1-9.979-9.414A10 10 0 0 0 27 36a10 10 0 0 0 10 10 10 10 0 0 0 10-10 10 10 0 0 0-.021-.586z"/>
    <g style="fill:#fff">
        <path d="m32.05 38.796 8.486-8.486 1.414 1.415-8.485 8.485z"/>
        <path d="m40.536 40.21-8.485-8.485 1.414-1.415 8.485 8.486z"/>
    </g>
</svg>

<svg xmlns="http://www.w3.org/2000/svg" width="48" height="48" version="1">
 <path style="fill:#e4e4e4" d="M 7,7 C 7,7 4,7 4,10 V 34 C 4,34 4,37 7,37 H 12 L 16,41 H 32 L 36,37 H 41 C 41,37 44,37 44,34 V 10 C 44,7 41,7 41,7 Z"/>
 <path style="opacity:0.4;fill:#ffffff" d="M 10,14 H 38 V 32 H 33.516 L 29.516,36 H 18.485 L 14.485,32 H 9.9996 Z"/>
 <path style="fill:#5d5d5d" d="M 10,13 H 38 V 31 H 33.516 L 29.516,35 H 18.485 L 14.485,31 H 9.9996 Z"/>
 <path style="opacity:0.1;fill:#ffffff" d="M 7,7 C 7,7 4,7 4,10 V 11 C 4,8 7,8 7,8 H 41 C 41,8 44,8 44,11 V 10 C 44,7 41,7 41,7 Z"/>
 <path style="opacity:0.2" d="M 4,34 V 35 C 4,35 4,38 7,38 H 12 L 16,42 H 32 L 36,38 H 41 C 41,38 44,38 44,35 V 34 C 44,37 41,37 41,37 H 36 L 32,41 H 16 L 12,37 H 7 C 4,37 4,34 4,34 Z"/>
 <circle style="fill:#db3c30" cx="37" cy="35" r="10"/>
 <path style="opacity:0.2" d="M 46.979,35.414 A 10,10 0 0 1 37,45 10,10 0 0 1 27.021,35.586 10,10 0 0 0 27,36 10,10 0 0 0 37,46 10,10 0 0 0 47,36 10,10 0 0 0 46.979,35.414 Z"/>
 <g style="fill:#ffffff" transform="matrix(0.70711,-0.70711,0.70711,0.70711,-12.497,33.846)">
  <rect width="12" height="2" x="28" y="35"/>
  <rect width="12" height="2" x="-42" y="33" transform="rotate(-90)"/>
 </g>
</svg>
